X: 43
T: Ah Efendim Dinle Gel
C: Salih Hayri Efendi
O: Turkey
F: http://compmusic.upf.edu/node/140
N: karcigar--sarki--agiraksak--ah_efendim--hafiz_yusuf_efendi
N: makam= karcigar
N: form= sarki
N: usul= agiraksak = 9/4
M: 9/4
L: 1/16
K: C _2/4B _3/4e ^3/4f 
Q: 1/4=66
%%MIDI tuningsystem comma53
z8 z2c4d2 d8 e3d c2d2 e2f2  | g2a2 f2e2 d2d4{g}fe {e}d2c4B2 c2BA {B}A4 B2c2  | 
w:  Ah  e fen dim   |  *  *  *  *  *  din *  le  *  *  gel  *  *  şu   | 
d2{=e}dc BAG2 z2c2 B2c2 d8 _2/4e2ed c2d2 e2f2  | \
w:  *  *  *  *  *  *  *  nâ *  le  vü  fer  | 
g2a2 f2e2 d2a2 g2{a}gf f3e feed d6fe dcBc  | 
w:  *  *  *  *  *  yâ *  *  *  *  *  *  *  *  dı *  mı   SAZ  | 
d3e dcBc d2d4e2 {a}g2f2 e2d2 c2cd e2f2 g2a2  | \
w:  *  *  *  *  *  *  *  Kayd_ ı  *  fir *  *  *  kat  | 
c'2_ba gfed c2d4fe d2c4B2 c6B2 _2/4e2dc  | 
w:  *  *  *  *  *  *  *  *  ten  ha *  lâs  *  *  et  | 
c2{e}d2 c2B2 z2A4B2 c2d2 c2B2 feed c2d2 e2f2  | \
w:  *  *  *  *  *  me  dil_ i  *  *  *  nâ  | 
g3/2a/gf edcB c2c4{d}cB B3A A2{c}BA A6fe dcBc  | 
w:  *  *  *  *  *  *  *  *  *  şâ *  *  *  *  *  *  *  dı *  mı   SAZ  | 
d3e dcBc d2d4e2 {a}g2f2 e2d2 c2cd e2f2 g2a2  | \
w:  *  *  *  *  *  *  *  Kayd_ ı  *  fir *  *  *  kat  | 
c'2_ba gfed c2d4fe d2c4B2 c6B2 _2/4e2dc  | 
w:  *  *  *  *  *  *  *  *  ten  ha *  lâs  *  *  et  | 
c2{e}d2 c2B2 z2A4B2 c2d2 c2B2 feed c2d2 e2f2  | \
w:  *  *  *  *  *  me  dil_ i  *  *  *  nâ  | 
g3/2a/gf edcB c2c4{d}cB B3A A2{c}BA A6a_b agfg  | 
w:  *  *  *  *  *  *  *  *  *  şâ *  *  *  *  *  *  *  dı *  mı   SAZ  | 
a3_b agfg a2g4a2 a8 b3a g2a2 b2c'2  | \
w:  *  *  *  *  *  *  *  Ben  e sîr_ i   | 
a2g2 f2e2 d2d4c2 f2g2 a3/2_b/ag g6=f=e dcBA  | 
w:  *  *  *  *  *  aş kın_ ol *  *  *  *  *  dum   | 
GABc d_2/4efa g2g4c'2 c'3b a4 _b3a g4 a4  | \
w:  *  *  *  *  *  *  *  *  *  is te mem  *  *  â  | 
_bagf edc2 z2a2 g2gf f3e feed d6fe dcBc  | 
w:  *  *  *  *  *  *  *  zâ *  *  *  *  *  *  *  dı *  mı   SAZ  | 
d3e dcBc d2d4e2 {a}g2f2 e2d2 c2cd e2f2 g2a2  | \
w:  *  *  *  *  *  *  *  Kayd_ ı  *  fir *  *  *  kat  | 
c'2_ba gfed c2d4fe d2c4B2 c6B2 _2/4e2dc  | 
w:  *  *  *  *  *  *  *  *  ten  ha *  lâs  *  *  et  | 
c2{e}d2 c2B2 z2A4B2 c2d2 c2B2 feed c2d2 e2f2  | \
w:  *  *  *  *  *  me  dil_ i  *  *  *  nâ  | 
g3/2a/gf edcB c2c4{d}cB B3A A2{c}BA A6fe dcBc  | 
w:  *  *  *  *  *  *  *  *  *  şâ *  *  *  *  *  *  *  dı *  mı   SAZ  | 
d3e dcBc d2d4e2 {a}g2f2 e2d2 c2cd e2f2 g2a2  | \
w:  *  *  *  *  *  *  *  Kayd_ ı  *  fir *  *  *  kat  | 
c'2_ba gfed c2d4fe d2c4B2 c6B2 _2/4e2dc  | 
w:  *  *  *  *  *  *  *  *  ten  ha *  lâs  *  *  et  | 
c2{e}d2 c2B2 z2A4B2 c2d2 c2B2 feed c2d2 e2f2  | \
w:  *  *  *  *  *  me  dil_ i  *  *  *  nâ  | 
g3/2a/gf edcB c2c4{d}cB B3A A2{c}BA A6|
w:  *  *  *  *  *  *  *  *  *  şâ *  *  *  *  *  *  *  dı *  mı    | 


